X:1
T:James Gibb editions
T:Ecce Virgo concipiet - Isaac
%%score [ 1 2 3 4 ]
L:1/8
Q:1/4=80
M:none
K:C
V:1 treble nm="Soprano" snm="S"
V:2 treble nm="Alto" snm="A"
V:3 treble-8 nm="Tenor" snm="T"
V:4 treble nm="Bass" snm="B"
V:1
 z32[Q:1/4=60] ||[K:F][M:2/2][K:treble][Q:1/4=75][Q:1/4=100][Q:1/4=75][Q:1/4=75][Q:1/4=75] z4 (G4 | %2
w: |et|
 A4) (c4 | d3 e f2 g2 | f2 d4) ^c2 | d4 z4 | z8 | z2 d4 d2 | (d3 c de f2- | fe d4) ^c2 | %10
w: * pa\-||* * ri-|et:||et vo-|ca\- * * * *|* * * bi-|
[M:2/2][Q:1/4=100][Q:1/4=100][Q:1/4=100][Q:1/4=100] d4 z4 | B4 B4 | z4 z2 x2 | (c2 d2 _e2 d2- | %14
w: tur|no- men||e\- * * *|
 d2 c4 =B2) | c4 z2 _B2 | c2 A2 (B2 G2) | z4 z2 A2 | (B2 c2 d2) B2 | c4 z4 | (A2 B2) G2 A2 | %21
w: |ius Em-|ma- nu- el, *|Em-|ma\- * * nu-|el.|Em\- * ma- nu-|
 (F2 G2) z2 A2 | (B2 G2 A2) F2 |[Q:1/4=97] G8- |[Q:1/4=92] G8 |[Q:1/4=87] !fermata!G8 |] %26
w: el, * Em-|ma\- * * nu-|el.|||
V:2
 z32 ||[K:F][M:2/2][K:treble] (D4 E2) (G2- | G2 ^F2 G2 G,2- | G,A,B,C DC C=B,/C/ | D2) G,2 A,4 | %5
w: |et * pa\-|||* ri- et|
 (D3 C DE F2- | FE D4) ^C2 | D2 A4 A2 | A2 A2 A4 | z4 A4 |[M:2/2] ^F4 z4 | G4 G4 | z4 z2 G2- | %13
w: fi- * * * *|* * * li-|um: et vo-|ca- bi- tur|no-|men,|no- men|e\-|
 (EF D2 C2 G2 | A4) G4 | z4 F2 G2 | E2 (F2 D2) z2 | z4 (E2 F2) | G2 A2 (F2 G2) | z4 z2 E2 | %20
w: |* ius|Em- ma-|nu- el, *|Em\- *|ma- nu- el *|Em-|
 (F2 D2 E2) C2 | D2 z2 (E2 F2) | (D2 E2) C2 D2 | z2 C2 (D4 | _E2 C2) !courtesy!_E4 | !fermata!D8 |] %26
w: ma\- * * nu-|el, Em\- *|ma\- * nu- el,|Em- ma\-|* * nu-|el.|
V:3
[K:F]"^Heinrich Isaac\n(c.1450-1517)""^Ecce Virgo concipiet" G2 (F2 B2 A2) B2 G2 (G2 A2) (c2 d2) (d2 c2) (B2 A2 B2 !fermata!G2) || %1
w: Ec- ce * * Vir- go con\- * ci\- * pi\- * et * * *|
[M:2/2][K:treble-8] G8 | (d4 e4) | g4 f2 (e2 | f2 g2 e4 | d2 AG AB c2- | cB A4) G2 | A4 z2 d2- | %8
w: et|pa- *|ri- et fi\-|||* * * li-|um: et|
 d2 d2 (dcd)e | (f2 g2 e4 |[M:2/2][K:treble-8] d4 d4 | d4 z2 (B2 | c2 d2) _e2 d2 | c2 B2 c2 d2 | %14
w: * vo- ca- * * bi-|tur * *|* no-|men e\-|* * ius, *||
 e2 f2 d4 | c2) (A2 B2) G2 | z4 (B2 c2) | A2 B2 G2 z2 | z8 | z2 A2 (B2 c2 | d2 B2 c2 A2 | %21
w: |* e\- * ius|Em\- *|ma- nu- el,||Em- ma\- *||
 B2 G2 A2) F2 | G2 z2 (A2 B2 | G4) z2 (d2 | c2 G4) c2 | !fermata!=B8 |] %26
w: * * * nu-|el, Em\- *|* ma\-|* * nu-|el.|
V:4
 z32 ||[K:F][M:2/2][K:bass] G,4 (C,2 E,2) | D,4 C,4 | z8 | z8 | (D,3 E, F,G, A,2- | A,G, F,2) E,4 | %7
w: |et pa- *|ri- et|||fi\- * * * *|* * * li-|
 D,8- | D,4 z2 D2- | D2 G,2 A,2 A,2 |[M:2/2] D,4 G,4 | G,4 z2 (G,2 | E,F, D,2 C,2 G,2 | %13
w: um:|* et|* vo- ca- bi-|tur no-|men e\-||
 A,2 G,2 C2 B,2 | A,2 F,2 G,4) | C,4 z4 | z2 F,2 G,2 E,2 | (F,2 D,2) z4 | z8 | (E,2 F,2) (G,2 A,2 | %20
w: ||ius|Em- ma- nu-|el *||Em\- * ma\- *|
 F,2 G,2 E,2 F,2 | D,2 E,2) (C,2 D,2) | z4 z2 D,2 | (_E,2 C,4) B,,2 | (C,8 | !fermata!G,8) |] %26
w: |* nu- el, *|Em-|ma\- * nu-|el.||

